src/lib/packages/icons/src/assets/filled/sticky-note-text-circle.svg

<svg width="24" height="24" viewBox="0 0 24 24" fill="none" xmlns="http://www.w3.org/2000/svg">
<path d="M18.6699 14.97H21.1699C20.8899 15.49 20.5301 15.97 20.1001 16.4L16.3999 20.1C15.9699 20.53 15.49 20.89 14.97 21.17V18.67C14.97 16.63 16.6299 14.97 18.6699 14.97ZM22 11.8199C22 12.3799 21.93 12.94 21.77 13.47H18.6699C15.7999 13.47 13.47 15.8 13.47 18.67V21.77C12.94 21.93 12.3801 22 11.8201 22C6.39007 22 2 17.6101 2 12.1801V11.8199C2 6.38995 6.39007 2 11.8201 2H12.1799C17.6099 2 22 6.38995 22 11.8199ZM12.75 14C12.75 13.586 12.414 13.25 12 13.25H8C7.586 13.25 7.25 13.586 7.25 14C7.25 14.414 7.586 14.75 8 14.75H12C12.414 14.75 12.75 14.414 12.75 14ZM16.75 9.5C16.75 9.086 16.414 8.75 16 8.75H8.11108C7.69708 8.75 7.36108 9.086 7.36108 9.5C7.36108 9.914 7.69708 10.25 8.11108 10.25H16C16.414 10.25 16.75 9.914 16.75 9.5Z" fill="currentColor"/>
</svg>

<svg xmlns="http://www.w3.org/2000/svg" width="24" height="24" fill="none"><path fill="currentColor" d="M18.67 14.97h2.5c-.28.52-.64 1-1.07 1.43l-3.7 3.7c-.43.43-.91.79-1.43 1.07v-2.5c0-2.04 1.66-3.7 3.7-3.7ZM22 11.82c0 .56-.07 1.12-.23 1.65h-3.1c-2.87 0-5.2 2.33-5.2 5.2v3.1c-.53.16-1.09.23-1.65.23C6.39 22 2 17.61 2 12.18v-.36C2 6.39 6.39 2 11.82 2h.36C17.61 2 22 6.39 22 11.82ZM12.75 14a.75.75 0 0 0-.75-.75H8a.75.75 0 0 0 0 1.5h4a.75.75 0 0 0 .75-.75Zm4-4.5a.75.75 0 0 0-.75-.75H8.111a.75.75 0 0 0 0 1.5H16a.75.75 0 0 0 .75-.75Z"/></svg>
